icons/photoshopclassic-filled.svg

<svg width="256" height="256" viewBox="0 0 256 256" fill="none" xmlns="http://www.w3.org/2000/svg">
<path d="M196 0H60C26.8629 0 0 26.8629 0 60V196C0 229.137 26.8629 256 60 256H196C229.137 256 256 229.137 256 196V60C256 26.8629 229.137 0 196 0Z" fill="#001E36"/>
<path d="M91.8 85.3129C88.4416 81.6962 84.3036 78.892 79.7 77.1128C73.7841 74.9217 67.507 73.8698 61.2 74.0129C58.5 74.0129 55.8 74.0128 53 74.1128C50.2 74.2128 47.6 74.2128 45.2 74.3128C42.8 74.4128 40.4 74.4129 38.3 74.5129C36.2 74.6129 34.5 74.3128 32.9 74.3128C32.3 74.3128 32 74.7129 32 75.4129V177.813C32 178.713 32.3 179.313 33 179.313H50.5C51.4 179.313 51.8 178.813 51.8 177.913V146.613C53.5 146.613 54.8 146.613 55.7 146.713C56.6 146.813 58.1 146.813 60.2 146.813C67.1512 146.899 74.0506 145.608 80.5 143.013C86.468 140.575 91.5337 136.348 95 130.913C98.6 125.313 100.4 118.213 100.4 109.713C100.387 105.304 99.7129 100.922 98.4 96.7128C96.9786 92.5124 94.735 88.637 91.8 85.3129ZM77.9 120.413C76.0121 122.873 73.4367 124.717 70.5 125.713C67.1537 126.851 63.6336 127.392 60.1 127.313H55.3C54.2 127.313 53.1 127.213 51.8 127.113V93.9129C53 93.8129 54.3 93.7128 55.5 93.7128C57.3 93.6128 59.3 93.6128 61.7 93.6128C65.3343 93.5312 68.9453 94.2125 72.3 95.6128C74.9234 96.8391 77.1181 98.8249 78.6 101.313C80.0898 104.036 80.8154 107.111 80.7 110.213C80.7 114.513 79.7 118.013 77.9 120.413Z" fill="#31A8FF"/>
<path d="M147.1 137.413C142.833 134.397 138.194 131.943 133.3 130.113C131.1 129.113 129 128.013 126.9 126.813C125.722 126.133 124.7 125.213 123.9 124.113C123.395 123.331 123.086 122.439 123 121.513C122.972 120.565 123.215 119.628 123.7 118.813C124.372 117.84 125.362 117.133 126.5 116.813C128.25 116.286 130.074 116.05 131.9 116.113C135.309 116.095 138.706 116.533 142 117.413C144.934 118.083 147.739 119.232 150.3 120.813C150.448 120.911 150.622 120.963 150.8 120.963C150.978 120.963 151.151 120.911 151.3 120.813C151.455 120.702 151.575 120.549 151.646 120.371C151.717 120.194 151.736 120 151.7 119.813V103.513C151.716 103.11 151.683 102.707 151.6 102.313C151.52 102.109 151.399 101.924 151.244 101.769C151.089 101.614 150.904 101.493 150.7 101.413C148.43 100.2 145.955 99.4205 143.4 99.1129C139.697 98.5113 135.951 98.2104 132.2 98.2129C125.8 98.2129 120.5 99.4129 116.3 101.713C112.342 103.805 109.077 107.001 106.9 110.913C104.869 114.618 103.835 118.788 103.9 123.013C103.891 126.521 104.606 129.993 106 133.213C107.573 136.509 109.903 139.388 112.8 141.613C116.681 144.642 120.996 147.07 125.6 148.813C130 150.613 133 152.213 134.4 153.513C135.035 153.98 135.561 154.58 135.941 155.27C136.321 155.961 136.546 156.726 136.6 157.513C136.618 158.365 136.404 159.206 135.982 159.945C135.559 160.685 134.943 161.296 134.2 161.713C132.6 162.713 130.1 163.113 126.7 163.113C123.121 163.014 119.566 162.51 116.1 161.613C112.254 160.637 108.602 159.014 105.3 156.813C105.142 156.731 104.963 156.697 104.785 156.714C104.608 156.732 104.439 156.801 104.3 156.913C104.161 157.016 104.052 157.153 103.981 157.31C103.911 157.468 103.883 157.641 103.9 157.813V175.213C103.905 175.584 104.022 175.945 104.237 176.249C104.451 176.552 104.752 176.784 105.1 176.913C107.912 178.345 110.906 179.388 114 180.013C118.006 180.895 122.098 181.331 126.2 181.313C132.7 181.313 138.1 180.213 142.5 178.113C146.679 176.22 150.196 173.12 152.6 169.213C154.999 165.199 156.212 160.588 156.1 155.913C156.158 152.368 155.441 148.853 154 145.613C152.448 142.329 150.07 139.503 147.1 137.413Z" fill="#31A8FF"/>
<path d="M222.8 84.6127C220.655 83.7431 218.4 83.1711 216.1 82.9127C212.715 82.5136 209.309 82.3132 205.9 82.3127C196.1 82.3127 187.5 84.4127 180.4 88.5127C173.312 92.6451 167.553 98.7168 163.8 106.013C159.9 113.413 158 122.213 158 132.013C157.936 137.952 158.676 143.872 160.2 149.613C161.569 154.499 163.731 159.127 166.6 163.313C169.264 167.159 172.581 170.51 176.4 173.213C180.235 175.965 184.538 177.998 189.1 179.213C193.856 180.528 198.766 181.201 203.7 181.213C207.146 181.232 210.588 180.998 214 180.513C216.776 180.202 219.499 179.53 222.1 178.513C222.597 178.271 223.008 177.883 223.276 177.399C223.544 176.916 223.658 176.362 223.6 175.813V160.913C223.641 160.641 223.617 160.363 223.53 160.103C223.443 159.842 223.296 159.606 223.1 159.413C222.868 159.229 222.576 159.138 222.281 159.156C221.985 159.175 221.707 159.302 221.5 159.513C219.237 160.337 216.889 160.907 214.5 161.213C211.609 161.496 208.705 161.629 205.8 161.613C203.162 161.598 200.539 161.228 198 160.513C195.331 159.802 192.773 158.725 190.4 157.313C187.938 155.814 185.797 153.843 184.1 151.513C182.185 148.899 180.699 145.995 179.7 142.913C178.567 139.118 178.028 135.172 178.1 131.213C177.986 125.699 179.113 120.231 181.4 115.213C183.467 110.887 186.728 107.244 190.8 104.713C195.222 102.121 200.276 100.805 205.4 100.913C208.551 100.881 211.699 101.149 214.8 101.713C217.314 102.118 219.746 102.928 222 104.113C222.202 104.212 222.425 104.263 222.65 104.263C222.875 104.263 223.098 104.212 223.3 104.113C223.515 103.931 223.682 103.699 223.787 103.438C223.892 103.176 223.93 102.893 223.9 102.613V87.0127C223.92 86.5542 223.83 86.0975 223.639 85.6803C223.448 85.2631 223.16 84.8972 222.8 84.6127Z" fill="#31A8FF"/>
</svg>

<svg xmlns="http://www.w3.org/2000/svg" width="256" height="256" fill="none"><path fill="#001E36" d="M196 0H60C26.863 0 0 26.863 0 60v136c0 33.137 26.863 60 60 60h136c33.137 0 60-26.863 60-60V60c0-33.137-26.863-60-60-60"/><path fill="#31A8FF" d="M91.8 85.313a32.5 32.5 0 0 0-12.1-8.2 50 50 0 0 0-18.5-3.1c-2.7 0-5.4 0-8.2.1s-5.4.1-7.8.2-4.8.1-6.9.2-3.8-.2-5.4-.2c-.6 0-.9.4-.9 1.1v102.4c0 .9.3 1.5 1 1.5h17.5c.9 0 1.3-.5 1.3-1.4v-31.3c1.7 0 3 0 3.9.1s2.4.1 4.5.1a52.6 52.6 0 0 0 20.3-3.8 31.2 31.2 0 0 0 14.5-12.1c3.6-5.6 5.4-12.7 5.4-21.2a44.1 44.1 0 0 0-2-13 33.4 33.4 0 0 0-6.6-11.4m-13.9 35.1a15.67 15.67 0 0 1-7.4 5.3 30.2 30.2 0 0 1-10.4 1.6h-4.8c-1.1 0-2.2-.1-3.5-.2v-33.2c1.2-.1 2.5-.2 3.7-.2 1.8-.1 3.8-.1 6.2-.1 3.634-.082 7.245.6 10.6 2a14.46 14.46 0 0 1 6.3 5.7 17.2 17.2 0 0 1 2.1 8.9c0 4.3-1 7.8-2.8 10.2m69.2 17a60.8 60.8 0 0 0-13.8-7.3c-2.2-1-4.3-2.1-6.4-3.3a9.7 9.7 0 0 1-3-2.7 5.8 5.8 0 0 1-.9-2.6 5 5 0 0 1 .7-2.7 5.07 5.07 0 0 1 2.8-2 16.7 16.7 0 0 1 5.4-.7 38.4 38.4 0 0 1 10.1 1.3 27.4 27.4 0 0 1 8.3 3.4.91.91 0 0 0 1 0 1 1 0 0 0 .4-1v-16.3a5 5 0 0 0-.1-1.2 1.6 1.6 0 0 0-.9-.9 20.8 20.8 0 0 0-7.3-2.3 69.6 69.6 0 0 0-11.2-.9c-6.4 0-11.7 1.2-15.9 3.5a23.1 23.1 0 0 0-9.4 9.2 24.4 24.4 0 0 0-3 12.1 25.5 25.5 0 0 0 2.1 10.2 23.2 23.2 0 0 0 6.8 8.4 49 49 0 0 0 12.8 7.2c4.4 1.8 7.4 3.4 8.8 4.7a5.44 5.44 0 0 1 2.2 4 4.7 4.7 0 0 1-2.4 4.2c-1.6 1-4.1 1.4-7.5 1.4a47.6 47.6 0 0 1-10.6-1.5 35 35 0 0 1-10.8-4.8.92.92 0 0 0-1 .1 1 1 0 0 0-.4.9v17.4a1.84 1.84 0 0 0 1.2 1.7 34.8 34.8 0 0 0 8.9 3.1 55.6 55.6 0 0 0 12.2 1.3c6.5 0 11.9-1.1 16.3-3.2a23 23 0 0 0 10.1-8.9 24.77 24.77 0 0 0 3.5-13.3 24.4 24.4 0 0 0-2.1-10.3 21 21 0 0 0-6.9-8.2m75.7-52.8a25.4 25.4 0 0 0-6.7-1.7c-3.385-.4-6.791-.6-10.2-.6-9.8 0-18.4 2.1-25.5 6.2a43.05 43.05 0 0 0-16.6 17.5c-3.9 7.4-5.8 16.2-5.8 26a65.8 65.8 0 0 0 2.2 17.6 46.4 46.4 0 0 0 6.4 13.7 40.1 40.1 0 0 0 9.8 9.9 39 39 0 0 0 12.7 6 55.3 55.3 0 0 0 14.6 2 70.4 70.4 0 0 0 10.3-.7 32 32 0 0 0 8.1-2 2.69 2.69 0 0 0 1.5-2.7v-14.9a1.74 1.74 0 0 0-.5-1.5 1.2 1.2 0 0 0-1.6.1 32.6 32.6 0 0 1-7 1.7 85 85 0 0 1-8.7.4 29.4 29.4 0 0 1-7.8-1.1 30 30 0 0 1-7.6-3.2 21.9 21.9 0 0 1-6.3-5.8 30.4 30.4 0 0 1-4.4-8.6 38.5 38.5 0 0 1-1.6-11.7 36.75 36.75 0 0 1 3.3-16 25.1 25.1 0 0 1 9.4-10.5 27.7 27.7 0 0 1 14.6-3.8 49.7 49.7 0 0 1 9.4.8 23.5 23.5 0 0 1 7.2 2.4 1.48 1.48 0 0 0 1.3 0 1.73 1.73 0 0 0 .6-1.5v-15.6a2.9 2.9 0 0 0-1.1-2.4"/></svg>
